assets/icons/standard/segments.svg

<svg data-name="Layer 1" xmlns="http://www.w3.org/2000/svg" width="100" height="100" viewBox="0 0 100 100"><path d="M78.8,45.1l-1-2.8L55.1,50.4l-.5,1.3A4.81,4.81,0,0,1,52.9,54a4.89,4.89,0,0,1-7.8-4,5.73,5.73,0,0,1,1.4-3.7l.6-.8V20.3l-3.6.8A29,29,0,0,0,27.4,31a29.7,29.7,0,0,0-6.9,18.9,29.6,29.6,0,0,0,59.2,0A17.72,17.72,0,0,0,78.8,45.1ZM66.7,66.8A23.37,23.37,0,0,1,50,73.7a23.61,23.61,0,0,1-16.7-6.9A23.57,23.57,0,0,1,31.9,35a24.13,24.13,0,0,1,9.3-6.8V43.7a11.51,11.51,0,0,0-2,6.4,10.74,10.74,0,0,0,3.2,7.7A11,11,0,0,0,50.1,61a10.67,10.67,0,0,0,6.4-2.1,10.23,10.23,0,0,0,3.2-3.7l14-5A23.83,23.83,0,0,1,66.7,66.8Z" fill="#fff"/><path d="M55.6,43.9,75.1,37a1.05,1.05,0,0,0,.5-1.7l-.2-.4a29.69,29.69,0,0,0-20.7-14,1.58,1.58,0,0,0-1.8,1.6V42.1a2,2,0,0,0,.1.7A2,2,0,0,0,55.6,43.9Z" fill="#fff"/></svg>

<?xml version="1.0"?><svg xmlns="http://www.w3.org/2000/svg" width="100" height="100" viewBox="0 0 100 100"><title></title><path d="m78.8 45.1l-1-2.8-22.7 8.1-0.5 1.3a4.8 4.8 0 0 1-1.7 2.3 4.9 4.9 0 0 1-7.8-4 5.7 5.7 0 0 1 1.4-3.7l0.6-0.8v-25.2l-3.6 0.8a29 29 0 0 0-16.1 9.9 29.7 29.7 0 0 0-6.9 18.9 29.6 29.6 0 0 0 59.2 0 17.7 17.7 0 0 0-0.9-4.8z m-12.1 21.7a23.4 23.4 0 0 1-16.7 6.9 23.6 23.6 0 0 1-16.7-6.9 23.6 23.6 0 0 1-1.4-31.8 24.1 24.1 0 0 1 9.3-6.8v15.5a11.5 11.5 0 0 0-2 6.4 10.7 10.7 0 0 0 3.2 7.7 11 11 0 0 0 7.7 3.2 10.7 10.7 0 0 0 6.4-2.1 10.2 10.2 0 0 0 3.2-3.7l14-5a23.8 23.8 0 0 1-7 16.6z m-11.1-22.9l19.5-6.9a1.1 1.1 0 0 0 0.5-1.7l-0.2-0.4a29.7 29.7 0 0 0-20.7-14 1.6 1.6 0 0 0-1.8 1.6v19.6a2 2 0 0 0 0.1 0.7 2 2 0 0 0 2.6 1.1z" fill="#fff"></path></svg>
